; HEADER_BLOCK_START
; generated by OrcaSlicer 1.7.0 on 2024-09-21 at 19:09:01
; total layer number: 355
; HEADER_BLOCK_END

; THUMBNAIL_BLOCK_START
; THUMBNAIL_BLOCK_END

; external perimeters extrusion width = 0.40mm
; perimeters extrusion width = 0.45mm
; infill extrusion width = 0.45mm
; solid infill extrusion width = 0.40mm
; top infill extrusion width = 0.40mm
; first layer extrusion width = 0.50mm

; EXECUTABLE_BLOCK_START
EXCLUDE_OBJECT_DEFINE NAME=rtl_p53_holder-v2.stl_id_0_copy_0 CENTER=114,114 POLYGON=[[98,99.5],[130,99.5],[130,128.5],[98,128.5],[98,99.5]]
M73 P0 R171
;TYPE:Custom
M117
START_PRINT
G90
G21
M83 ; use relative distances for extrusion
; filament start gcode
M106 S0
;LAYER_CHANGE
;Z:0.2
;HEIGHT:0.2
G1 E-5 F3600
;_SET_FAN_SPEED_CHANGING_LAYER
SET_VELOCITY_LIMIT ACCEL=500 ACCEL_TO_DECEL=250
G1 Z.4 F9000
G1 X95.935 Y98.169
G1 Z.4
G1 Z.2
G1 E5 F2400
;TYPE:Skirt
;WIDTH:0.5
G1 F900
G1 X96.985 Y97.262 E.05169
G1 X98 Y97.043 E.03866
G1 X130 Y97.043 E1.19188
G1 X131.331 Y97.435 E.05169
G1 X132.238 Y98.485 E.05169
G1 X132.457 Y99.5 E.03866
G1 X132.457 Y128.5 E1.08014
G1 X132.065 Y129.831 E.05169
G1 X131.015 Y130.738 E.05169
G1 X130 Y130.957 E.03866
G1 X98 Y130.957 E1.19188
G1 X96.669 Y130.565 E.05169
G1 X95.762 Y129.515 E.05169
G1 X95.543 Y128.5 E.03866
G1 X95.543 Y99.5 E1.08014
G1 X95.923 Y98.207 E.0502
; printing object rtl_p53_holder-v2.stl id:0 copy 0
G1 E-3.5 F3600
;WIPE_START
G1 F900
G1 X96.985 Y97.262 E-1.0661
G1 X97.551 Y97.14 E-.4339
;WIPE_END
EXCLUDE_OBJECT_START NAME=rtl_p53_holder-v2.stl_id_0_copy_0
G1 Z.6 F9000
G1 X99.164 Y116.226 Z.6
G1 Z.2
G1 E5 F2400
;TYPE:Inner wall
;WIDTH:0.499999
G1 F900
G1 X99.293 Y116.436 E.00917
G1 X99.979 Y116.664 E.02692
G1 X128.021 Y116.664 E1.04449
G1 X128.707 Y116.436 E.02692
G1 X128.836 Y116.226 E.00917
G1 X128.836 Y127.336 E.41381
G1 X99.164 Y127.336 E1.10516
G1 X99.164 Y116.266 E.41232
G1 E-3.5 F3600
;WIPE_START
G1 F900
G1 X99.293 Y116.436 E-.15982
G1 X99.979 Y116.664 E-.54203
G1 X101.043 Y116.664 E-.79815
;WIPE_END
G1 Z.6 F9000
G1 X99.261 Y101.884 Z.6
G1 Z.2
G1 E5 F2400
;WIDTH:0.564381
G1 F900
G1 X99.261 Y101.479 E.01724
G1 X99.377 Y101.236 E.01143
;WIDTH:0.53219
G1 X99.494 Y100.994 E.01072
;WIDTH:0.535897
G1 X99.674 Y100.881 E.00854
;WIDTH:0.571795
G1 X99.854 Y100.768 E.00916
G1 X99.979 Y100.761 E.00538
;WIDTH:0.564381
G1 X128.021 Y100.761 E1.19161
G1 X128.264 Y100.877 E.01143
;WIDTH:0.53219
G1 X128.506 Y100.994 E.01072
G1 X128.623 Y101.236 E.01072
;WIDTH:0.56438
G1 X128.739 Y101.479 E.01143
G1 X128.739 Y115.521 E.59672
;WIDTH:0.571794
G1 X128.732 Y115.646 E.00538
G1 X128.582 Y115.858 E.01118
;WIDTH:0.535897
G1 X128.433 Y116.07 E.01042
;WIDTH:0.499999
G1 X128.021 Y116.207 E.01615
G1 X99.979 Y116.207 E1.04449
G1 X99.567 Y116.07 E.01615
;WIDTH:0.535897
G1 X99.418 Y115.858 E.01042
;WIDTH:0.571795
G1 X99.268 Y115.646 E.01118
G1 X99.261 Y115.521 E.00538
;WIDTH:0.564381
G1 X99.261 Y101.924 E.57778
G1 X99.75 Y101.479 F9000
;TYPE:Outer wall
;WIDTH:0.499999
G1 F900
G1 X99.817 Y101.317 E.00651
G1 X99.979 Y101.25 E.00651
G1 X128.021 Y101.25 E1.04449
G1 X128.183 Y101.317 E.00651
G1 X128.25 Y101.479 E.00651
G1 X128.25 Y115.521 E.52304
G1 X128.159 Y115.704 E.00761
G1 X128.021 Y115.75 E.00538
G1 X99.979 Y115.75 E1.04449
G1 X99.841 Y115.704 E.00538
G1 X99.75 Y115.521 E.00761
G1 X99.75 Y101.519 E.52155
G1 X98.707 Y100.207 F9000
;TYPE:Inner wall
G1 F900
G1 X99.168 Y100.207 E.01716
;WIDTH:0.53219
G1 X99.573 Y100.223 E.01617
;WIDTH:0.564381
G1 X99.979 Y100.239 E.01724
G1 X128.021 Y100.239 E1.19161
G1 X128.657 Y100.223 E.02702
;WIDTH:0.53219
G1 X129.293 Y100.207 E.02535
;WIDTH:0.499999
G1 X129.293 Y100.668 E.01716
;WIDTH:0.53219
G1 X129.277 Y101.073 E.01617
;WIDTH:0.56438
G1 X129.261 Y101.479 E.01724
G1 X129.261 Y115.521 E.59672
;WIDTH:0.571794
G1 X129.275 Y116.096 E.02476
;WIDTH:0.535897
G1 X129.293 Y116.5 E.01625
;WIDTH:0.499999
G1 X129.293 Y127.793 E.42062
G1 X98.707 Y127.793 E1.1392
G1 X98.707 Y116.5 E.42062
;WIDTH:0.53219
G1 X98.723 Y116.011 E.01952
;WIDTH:0.564381
G1 X98.739 Y115.521 E.0208
G1 X98.739 Y101.479 E.59672
G1 X98.723 Y100.843 E.02702
;WIDTH:0.53219
G1 X98.708 Y100.247 E.02376
G1 X99.197 Y100.618 F9000
;WIDTH:0.507464
G1 F900
G1 X99.139 Y100.618 E.0022
G1 X99.11 Y100.668 E.0022
G1 X99.139 Y100.718 E.0022
G1 X99.197 Y100.718 E.0022
G1 X99.226 Y100.668 E.0022
G1 X98.25 Y99.75 F9000
;TYPE:Outer wall
;WIDTH:0.499999
G1 F900
G1 X129.75 Y99.75 E1.17325
M73 P0 R170
G1 X129.75 Y128.25 E1.06152
G1 X98.25 Y128.25 E1.17325
G1 X98.25 Y99.79 E1.06003
G1 E-3.5 F3600
;WIPE_START
G1 F900
G1 X100.25 Y99.787 E-1.5
;WIPE_END
G1 Z.6 F9000
G1 X128.861 Y100.618 Z.6
G1 Z.2
G1 E5 F2400
;TYPE:Inner wall
;WIDTH:0.507464
G1 F900
G1 X128.803 Y100.618 E.0022
G1 X128.774 Y100.668 E.0022
G1 X128.803 Y100.718 E.0022
G1 X128.861 Y100.718 E.0022
G1 X128.89 Y100.668 E.0022
G1 E-3.5 F3600
;WIPE_START
G1 F900
G1 X128.861 Y100.718 E-.3
G1 X128.803 Y100.718 E-.3
G1 X128.774 Y100.668 E-.3
G1 X128.803 Y100.618 E-.3
G1 X128.861 Y100.618 E-.3
;WIPE_END
G1 Z.6 F9000
G1 X128.69 Y117.499 Z.6
G1 Z.2
G1 E5 F2400
;TYPE:Bottom surface
;WIDTH:0.500096
G1 F1200
G1 X128.166 Y116.975 E.0276
G1 X128.041 Y117.016 E.00488
G1 X127.561 Y117.016 E.01792
G1 X128.484 Y117.939 E.04865
G1 X128.484 Y118.586 E.02409
G1 X126.914 Y117.016 E.08271
G1 X126.267 Y117.016 E.02409
G1 X128.484 Y119.233 E.11677
G1 X128.484 Y119.879 E.02409
G1 X125.621 Y117.016 E.15084
G1 X124.974 Y117.016 E.02409
G1 X128.484 Y120.526 E.1849
G1 X128.484 Y121.172 E.02409
G1 X124.328 Y117.016 E.21896
G1 X123.681 Y117.016 E.02409
G1 X128.484 Y121.819 E.25303
G1 X128.484 Y122.465 E.02409
G1 X123.035 Y117.016 E.28709
G1 X122.388 Y117.016 E.02409
G1 X128.484 Y123.112 E.32115
G1 X128.484 Y123.758 E.02409
G1 X121.742 Y117.016 E.35522
G1 X121.095 Y117.016 E.02409
G1 X128.484 Y124.405 E.38928
G1 X128.484 Y125.051 E.02409
G1 X120.449 Y117.016 E.42334
G1 X119.802 Y117.016 E.02409
G1 X128.484 Y125.698 E.45741
G1 X128.484 Y126.345 E.02409
G1 X119.155 Y117.016 E.49147
G1 X118.509 Y117.016 E.02409
G1 X128.477 Y126.984 E.52516
G1 X127.83 Y126.984 E.02409
G1 X117.862 Y117.016 E.52516
G1 X117.216 Y117.016 E.02409
G1 X127.184 Y126.984 E.52516
G1 X126.537 Y126.984 E.02409
G1 X116.569 Y117.016 E.52516
G1 X115.923 Y117.016 E.02409
G1 X125.891 Y126.984 E.52516
G1 X125.244 Y126.984 E.02409
G1 X115.276 Y117.016 E.52516
G1 X114.63 Y117.016 E.02409
G1 X124.597 Y126.984 E.52516
G1 X123.951 Y126.984 E.02409
G1 X113.983 Y117.016 E.52516
G1 X113.337 Y117.016 E.02409
G1 X123.304 Y126.984 E.52516
G1 X122.658 Y126.984 E.02409
G1 X112.69 Y117.016 E.52516
G1 X112.043 Y117.016 E.02409
G1 X122.011 Y126.984 E.52516
G1 X121.365 Y126.984 E.02409
G1 X111.397 Y117.016 E.52516
G1 X110.75 Y117.016 E.02409
G1 X120.718 Y126.984 E.52516
G1 X120.072 Y126.984 E.02409
G1 X110.104 Y117.016 E.52516
G1 X109.457 Y117.016 E.02409
G1 X119.425 Y126.984 E.52516
G1 X118.779 Y126.984 E.02409
G1 X108.811 Y117.016 E.52516
G1 X108.164 Y117.016 E.02409
G1 X118.132 Y126.984 E.52516
G1 X117.485 Y126.984 E.02409
G1 X107.518 Y117.016 E.52516
G1 X106.871 Y117.016 E.02409
G1 X116.839 Y126.984 E.52516
G1 X116.192 Y126.984 E.02409
G1 X106.225 Y117.016 E.52516
G1 X105.578 Y117.016 E.02409
G1 X115.546 Y126.984 E.52516
G1 X114.899 Y126.984 E.02409
G1 X104.932 Y117.016 E.52516
G1 X104.285 Y117.016 E.02409
G1 X114.253 Y126.984 E.52516
G1 X113.606 Y126.984 E.02409
G1 X103.638 Y117.016 E.52516
G1 X102.992 Y117.016 E.02409
G1 X112.96 Y126.984 E.52516
G1 X112.313 Y126.984 E.02409
G1 X102.345 Y117.016 E.52516
G1 X101.699 Y117.016 E.02409
G1 X111.667 Y126.984 E.52516
G1 X111.02 Y126.984 E.02409
G1 X101.052 Y117.016 E.52516
G1 X100.406 Y117.016 E.02409
G1 X110.373 Y126.984 E.52516
G1 X109.727 Y126.984 E.02409
G1 X99.659 Y116.916 E.53041
G1 X99.516 Y116.869 E.00563
G1 X99.516 Y117.42 E.02053
G1 X109.08 Y126.984 E.5039
G1 X108.434 Y126.984 E.02409
G1 X99.516 Y118.066 E.46983
G1 X99.516 Y118.713 E.02409
G1 X107.787 Y126.984 E.43577
G1 X107.141 Y126.984 E.02409
G1 X99.516 Y119.359 E.40171
G1 X99.516 Y120.006 E.02409
G1 X106.494 Y126.984 E.36764
G1 X105.848 Y126.984 E.02409
G1 X99.516 Y120.652 E.33358
G1 X99.516 Y121.299 E.02409
G1 X105.201 Y126.984 E.29952
G1 X104.555 Y126.984 E.02409
G1 X99.516 Y121.945 E.26545
G1 X99.516 Y122.592 E.02409
G1 X103.908 Y126.984 E.23139
G1 X103.262 Y126.984 E.02409
G1 X99.516 Y123.238 E.19733
G1 X99.516 Y123.885 E.02409
G1 X102.615 Y126.984 E.16326
G1 X101.968 Y126.984 E.02409
G1 X99.516 Y124.532 E.1292
G1 X99.516 Y125.178 E.02409
G1 X101.322 Y126.984 E.09514
G1 X100.675 Y126.984 E.02409
G1 X99.516 Y125.825 E.06107
G1 X99.516 Y126.471 E.02409
G1 X100.234 Y127.19 E.03785
; stop printing object rtl_p53_holder-v2.stl id:0 copy 0
M106 S255
;LAYER_CHANGE
;Z:0.4
;HEIGHT:0.2
G1 E-3.5 F3600
;WIPE_START
G1 F1200
G1 X99.516 Y126.471 E-.76195
G1 X99.516 Y125.825 E-.48491
G1 X99.755 Y126.063 E-.25314
;WIPE_END
EXCLUDE_OBJECT_END NAME=rtl_p53_holder-v2.stl_id_0_copy_0
;_SET_FAN_SPEED_CHANGING_LAYER
M140 S60 ; set bed temperature
; printing object rtl_p53_holder-v2.stl id:0 copy 0
SET_VELOCITY_LIMIT ACCEL=700 ACCEL_TO_DECEL=350
EXCLUDE_OBJECT_START NAME=rtl_p53_holder-v2.stl_id_0_copy_0
G1 Z.6 F9000
G1 X99.007 Y115.692 Z.6
G1 Z.4
G1 E5 F2400
SET_VELOCITY_LIMIT ACCEL=500 ACCEL_TO_DECEL=250
;TYPE:Inner wall
;WIDTH:0.486512
G1 X99.398 Y116.296 E.02599
;WIDTH:0.449999
G1 X99.979 Y116.489 E.0203
G1 X128.021 Y116.489 E.93023
G1 X128.602 Y116.296 E.0203
;WIDTH:0.48651
G1 X128.993 Y115.692 E.02599
G1 X129.011 Y116.5 E.02922
;WIDTH:0.449999
G1 X129.011 Y127.511 E.36525
G1 X98.989 Y127.511 E.99587
G1 X98.989 Y116.5 E.36525
;WIDTH:0.486512
G1 X99.007 Y115.732 E.02778
SET_VELOCITY_LIMIT ACCEL=700 ACCEL_TO_DECEL=350
G1 E-3.5 F3600
;WIPE_START
G1 F2400
G1 X99.398 Y116.296 E-.51477
G1 X99.979 Y116.489 E-.45902
G1 X100.68 Y116.489 E-.52621
;WIPE_END
G1 Z.8 F9000
G1 X99 Y101.479 Z.8
G1 Z.4
G1 E5 F2400
SET_VELOCITY_LIMIT ACCEL=500 ACCEL_TO_DECEL=250
;WIDTH:0.471684
G1 X98.977 Y100.477 E.03501
;WIDTH:0.425192
G1 X99.168 Y100.477 E.00595
;WIDTH:0.455852
G1 X99.488 Y100.492 E.01078
;WIDTH:0.486512
G1 X99.808 Y100.507 E.01159
G1 X99.556 Y100.655 E.01058
;WIDTH:0.455852
G1 X99.303 Y100.803 E.00985
;WIDTH:0.471684
G1 X99.016 Y101.442 E.02447
SET_VELOCITY_LIMIT ACCEL=700 ACCEL_TO_DECEL=350
G1 E-3.5 F3600
;WIPE_START
G1 F2400
G1 X98.977 Y100.477 E-.72458
G1 X99.168 Y100.477 E-.14335
G1 X99.488 Y100.492 E-.24039
G1 X99.808 Y100.507 E-.24039
G1 X99.634 Y100.609 E-.1513
;WIPE_END
G1 Z.8 F9000
G1 X128.021 Y100.5 Z.8
G1 Z.4
G1 E5 F2400
SET_VELOCITY_LIMIT ACCEL=500 ACCEL_TO_DECEL=250
G1 X129.023 Y100.477 E.03501
;WIDTH:0.425192
G1 X129.023 Y100.668 E.00595
;WIDTH:0.471682
G1 X129 Y101.479 E.02833
;WIDTH:0.471684
G1 X128.697 Y100.803 E.02587
G1 X128.058 Y100.516 E.02447
SET_VELOCITY_LIMIT ACCEL=700 ACCEL_TO_DECEL=350
G1 E-3.5 F3600
;WIPE_START
G1 F2400
G1 X129.023 Y100.477 E-.72458
G1 X129.023 Y100.668 E-.14335
G1 X129 Y101.479 E-.60824
G1 X128.987 Y101.45 E-.02383
;WIPE_END
G1 Z.8 F9000
G1 X99.418 Y101.804 Z.8
G1 Z.4
G1 E5 F2400
SET_VELOCITY_LIMIT ACCEL=500 ACCEL_TO_DECEL=250
;WIDTH:0.449999
G1 X99.418 Y101.479 E.01078
G1 X99.582 Y101.082 E.01423
G1 X99.882 Y100.926 E.0112
G1 X99.979 Y100.918 E.00323
G1 X128.021 Y100.918 E.93023
G1 X128.418 Y101.082 E.01423
G1 X128.582 Y101.479 E.01423
G1 X128.574 Y115.618 E.46904
G1 X128.358 Y115.97 E.01369
G1 X128.021 Y116.082 E.01176
G1 X99.979 Y116.082 E.93023
G1 X99.642 Y115.97 E.01176
G1 X99.426 Y115.618 E.01369
G1 X99.418 Y115.521 E.00323
G1 X99.418 Y101.844 E.45372
SET_VELOCITY_LIMIT ACCEL=700 ACCEL_TO_DECEL=350
G1 X99.8 Y101.479 F9000
SET_VELOCITY_LIMIT ACCEL=500 ACCEL_TO_DECEL=250
;TYPE:Outer wall
;WIDTH:0.399999
G1 F1500
G1 X99.852 Y101.352 E.00398
G1 X99.979 Y101.3 E.00398
G1 X128.021 Y101.3 E.81598
G1 X128.148 Y101.352 E.00398
G1 X128.2 Y101.479 E.00398
G1 X128.2 Y115.521 E.40861
G1 X128.129 Y115.664 E.00465
G1 X128.021 Y115.7 E.00329
G1 X99.979 Y115.7 E.81598
G1 X99.871 Y115.664 E.00329
G1 X99.8 Y115.521 E.00465
G1 X99.8 Y101.519 E.40745
SET_VELOCITY_LIMIT ACCEL=700 ACCEL_TO_DECEL=350
G1 E-3.5 F3600
;WIPE_START
G1 F1500
G1 X99.852 Y101.352 E-.13071
G1 X99.979 Y101.3 E-.10249
G1 X101.668 Y101.3 E-1.26681
;WIPE_END
G1 Z.8 F9000
G1 X128.021 Y100.5 Z.8
G1 Z.4
G1 E5 F2400
SET_VELOCITY_LIMIT ACCEL=500 ACCEL_TO_DECEL=250
;TYPE:Inner wall
;WIDTH:0.471684
G1 X99.979 Y100.5 E.97979
;WIDTH:0.486512
G1 X99.808 Y100.507 E.00616
SET_VELOCITY_LIMIT ACCEL=700 ACCEL_TO_DECEL=350
G1 E-3.5 F3600
;WIPE_START
G1 F2400
G1 X99.979 Y100.5 E-.12789
G1 X101.808 Y100.5 E-1.37211
;WIPE_END
G1 Z.8 F9000
G1 X128.993 Y115.692 Z.8
G1 Z.4
G1 E5 F2400
SET_VELOCITY_LIMIT ACCEL=500 ACCEL_TO_DECEL=250
;WIDTH:0.48651
G1 X129 Y115.521 E.00616
;WIDTH:0.471682
G1 X129 Y101.479 E.49064
SET_VELOCITY_LIMIT ACCEL=700 ACCEL_TO_DECEL=350
G1 E-3.5 F3600
;WIPE_START
G1 F2400
G1 X129 Y103.479 E-1.5
;WIPE_END
G1 Z.8 F9000
G1 X99 Y101.479 Z.8
G1 Z.4
G1 E5 F2400
SET_VELOCITY_LIMIT ACCEL=500 ACCEL_TO_DECEL=250
;WIDTH:0.471684
G1 X99 Y115.521 E.49064
;WIDTH:0.486512
M73 P0 R169
G1 X99.007 Y115.692 E.00616
SET_VELOCITY_LIMIT ACCEL=700 ACCEL_TO_DECEL=350
G1 E-3.5 F3600
;WIPE_START
G1 F2400
G1 X99 Y115.521 E-.12789
G1 X99 Y113.692 E-1.37211
;WIPE_END
G1 Z.8 F9000
G1 X98.582 Y100.082 Z.8
G1 Z.4
G1 E5 F2400
SET_VELOCITY_LIMIT ACCEL=500 ACCEL_TO_DECEL=250
;WIDTH:0.449999
G1 X129.418 Y100.082 E1.02288
G1 X129.418 Y127.918 E.92336
G1 X98.582 Y127.918 E1.02288
M73 P1 R169
G1 X98.582 Y100.122 E.92204
SET_VELOCITY_LIMIT ACCEL=700 ACCEL_TO_DECEL=350
G1 X98.2 Y99.7 F9000
SET_VELOCITY_LIMIT ACCEL=500 ACCEL_TO_DECEL=250
;TYPE:Outer wall
;WIDTH:0.399999
G1 F1500
G1 X129.8 Y99.7 E.91948
G1 X129.8 Y128.3 E.83219
G1 X98.2 Y128.3 E.91948
G1 X98.2 Y99.74 E.83102
SET_VELOCITY_LIMIT ACCEL=700 ACCEL_TO_DECEL=350
G1 E-3.5 F3600
;WIPE_START
G1 F1500
G1 X100.2 Y99.737 E-1.5
;WIPE_END
G1 Z.8 F9000
G1 X128.883 Y126.652 Z.8
G1 Z.4
G1 E5 F2400
SET_VELOCITY_LIMIT ACCEL=500 ACCEL_TO_DECEL=250
;TYPE:Internal solid infill
;WIDTH:0.40422
G1 X128.313 Y127.222 E.02374
G1 X127.802 Y127.222 E.01504
G1 X128.722 Y126.302 E.03832
G1 X128.722 Y125.791 E.01504
G1 X127.291 Y127.222 E.0596
G1 X126.78 Y127.222 E.01504
G1 X128.722 Y125.28 E.08087
G1 X128.722 Y124.769 E.01504
G1 X126.269 Y127.222 E.10214
G1 X125.758 Y127.222 E.01504
G1 X128.722 Y124.258 E.12342
G1 X128.722 Y123.747 E.01504
G1 X125.247 Y127.222 E.14469
G1 X124.736 Y127.222 E.01504
G1 X128.722 Y123.236 E.16597
G1 X128.722 Y122.725 E.01504
G1 X124.225 Y127.222 E.18724
G1 X123.714 Y127.222 E.01504
G1 X128.722 Y122.214 E.20852
G1 X128.722 Y121.703 E.01504
G1 X123.203 Y127.222 E.22979
G1 X122.692 Y127.222 E.01504
G1 X128.722 Y121.192 E.25106
G1 X128.722 Y120.682 E.01504
G1 X122.182 Y127.222 E.27234
G1 X121.671 Y127.222 E.01504
G1 X128.722 Y120.171 E.29361
G1 X128.722 Y119.66 E.01504
G1 X121.16 Y127.222 E.31489
G1 X120.649 Y127.222 E.01504
G1 X128.722 Y119.149 E.33616
G1 X128.722 Y118.638 E.01504
G1 X120.138 Y127.222 E.35744
G1 X119.627 Y127.222 E.01504
G1 X128.722 Y118.127 E.37871
G1 X128.722 Y117.616 E.01504
G1 X119.116 Y127.222 E.39999
G1 X118.605 Y127.222 E.01504
G1 X128.722 Y117.105 E.42126
G1 X128.722 Y116.594 E.01504
G1 X118.094 Y127.222 E.44253
G1 X117.583 Y127.222 E.01504
G1 X128.028 Y116.778 E.43488
G1 X127.517 Y116.778 E.01504
G1 X117.072 Y127.222 E.43488
G1 X116.561 Y127.222 E.01504
G1 X127.006 Y116.778 E.43488
G1 X126.495 Y116.778 E.01504
G1 X116.05 Y127.222 E.43488
G1 X115.539 Y127.222 E.01504
G1 X125.984 Y116.778 E.43488
G1 X125.473 Y116.778 E.01504
G1 X115.028 Y127.222 E.43488
G1 X114.517 Y127.222 E.01504
G1 X124.962 Y116.778 E.43488
G1 X124.451 Y116.778 E.01504
G1 X114.006 Y127.222 E.43488
G1 X113.495 Y127.222 E.01504
G1 X123.94 Y116.778 E.43488
G1 X123.429 Y116.778 E.01504
G1 X112.984 Y127.222 E.43488
G1 X112.473 Y127.222 E.01504
G1 X122.918 Y116.778 E.43488
G1 X122.407 Y116.778 E.01504
G1 X111.962 Y127.222 E.43488
G1 X111.451 Y127.222 E.01504
G1 X121.896 Y116.778 E.43488
G1 X121.385 Y116.778 E.01504
G1 X110.94 Y127.222 E.43488
G1 X110.43 Y127.222 E.01504
G1 X120.874 Y116.778 E.43488
G1 X120.363 Y116.778 E.01504
G1 X109.919 Y127.222 E.43488
G1 X109.408 Y127.222 E.01504
G1 X119.852 Y116.778 E.43488
