; HEADER_BLOCK_START
; generated by OrcaSlicer 1.7.0 on 2024-06-26 at 22:16:50
; total layer number: 160
; HEADER_BLOCK_END

; THUMBNAIL_BLOCK_START
; THUMBNAIL_BLOCK_END

; external perimeters extrusion width = 0.40mm
; perimeters extrusion width = 0.45mm
; infill extrusion width = 0.45mm
; solid infill extrusion width = 0.40mm
; top infill extrusion width = 0.40mm
; first layer extrusion width = 0.50mm

; EXECUTABLE_BLOCK_START
EXCLUDE_OBJECT_DEFINE NAME=rtl_p53_holder.stl_id_0_copy_0 CENTER=114,114 POLYGON=[[99.5,130.5],[110.5,77.5],[128.5,77.5],[128.5,150.5],[99.5,150.5],[99.5,130.5]]
M73 P0 R133
;TYPE:Custom
M117
START_PRINT
G90
G21
M83 ; use relative distances for extrusion
; filament start gcode
M106 S0
;LAYER_CHANGE
;Z:0.2
;HEIGHT:0.2
G1 E-5 F3600
;_SET_FAN_SPEED_CHANGING_LAYER
SET_VELOCITY_LIMIT ACCEL=500 ACCEL_TO_DECEL=250
G1 Z.4 F9000
G1 X108.748 Y75.777
G1 Z.4
G1 Z.2
G1 E5 F2400
;TYPE:Skirt
;WIDTH:0.5
G1 F900
G1 X110.5 Y75.043 E.07074
G1 X128.5 Y75.043 E.67043
G1 X129.831 Y75.435 E.05169
G1 X130.738 Y76.485 E.05169
G1 X130.957 Y77.5 E.03866
G1 X130.957 Y150.5 E2.71897
G1 X130.565 Y151.831 E.05169
G1 X129.515 Y152.738 E.05169
G1 X128.5 Y152.957 E.03866
G1 X99.5 Y152.957 E1.08014
M73 P0 R132
G1 X98.169 Y152.565 E.05169
G1 X97.262 Y151.515 E.05169
G1 X97.043 Y150.5 E.03866
G1 X97.043 Y130.5 E.74492
G1 X97.094 Y130.001 E.0187
G1 X108.094 Y77.001 E2.01612
G1 X108.73 Y75.812 E.0502
; printing object rtl_p53_holder.stl id:0 copy 0
G1 E-3.5 F3600
;WIPE_START
G1 F900
G1 X110.5 Y75.043 E-1.44776
G1 X110.57 Y75.043 E-.05224
;WIPE_END
EXCLUDE_OBJECT_START NAME=rtl_p53_holder.stl_id_0_copy_0
G1 Z.6 F9000
G1 X102.074 Y147.638 Z.6
G1 Z.2
G1 E5 F2400
;TYPE:Inner wall
;WIDTH:0.499999
G1 F900
G1 X102.227 Y147.664 E.00579
G1 X110.521 Y147.664 E.30894
G1 X110.961 Y147.576 E.01669
G1 X111.31 Y147.349 E.0155
G1 X111.53 Y147.059 E.01355
G1 X111.636 Y146.772 E.0114
G1 X111.664 Y146.521 E.0094
G1 X111.664 Y78.664 E2.52742
G1 X127.336 Y78.664 E.58371
G1 X127.336 Y149.336 E2.63225
G1 X100.664 Y149.336 E.99342
G1 X100.664 Y147.096 E.08341
;WIDTH:0.498827
G1 X100.656 Y146.423 E.02502
;WIDTH:0.530403
G1 X100.679 Y145.128 E.05146
;WIDTH:0.577524
G1 X100.703 Y143.833 E.05643
;WIDTH:0.624644
G1 X100.726 Y142.537 E.06141
;WIDTH:0.671765
G1 X100.75 Y141.242 E.06638
;WIDTH:0.718885
G1 X100.774 Y139.947 E.07136
G1 X100.752 Y139.867 E.00457
;WIDTH:0.675108
G1 X100.73 Y139.787 E.00427
;WIDTH:0.631331
G1 X100.708 Y139.707 E.00397
;WIDTH:0.587554
G1 X100.686 Y139.627 E.00368
;WIDTH:0.543777
G1 X100.664 Y139.547 E.00338
;WIDTH:0.499999
G1 X100.664 Y131.664 E.29361
G1 X102.106 Y131.664 E.0537
G1 X102.106 Y132.458 E.02955
G1 X101.587 Y139.581 E.26601
;WIDTH:0.543777
G1 X101.559 Y139.659 E.00338
;WIDTH:0.587554
G1 X101.532 Y139.737 E.00368
;WIDTH:0.631331
G1 X101.504 Y139.815 E.00397
;WIDTH:0.675108
G1 X101.476 Y139.893 E.00427
;WIDTH:0.718885
G1 X101.449 Y139.972 E.00457
G1 X101.378 Y141.265 E.07136
;WIDTH:0.671765
G1 X101.307 Y142.559 E.06638
;WIDTH:0.624644
G1 X101.237 Y143.852 E.06141
;WIDTH:0.577524
G1 X101.166 Y145.146 E.05643
;WIDTH:0.530403
G1 X101.096 Y146.439 E.05146
;WIDTH:0.491742
G1 X101.105 Y146.718 E.01022
;WIDTH:0.498827
G1 X101.184 Y146.986 E.01036
;WIDTH:0.499999
G1 X101.485 Y147.391 E.01881
G1 X101.851 Y147.6 E.01568
G1 X102.034 Y147.632 E.00693
G1 X102.15 Y147.194 F9000
G1 F900
G1 X102.227 Y147.207 E.0029
G1 X110.521 Y147.207 E.30894
G1 X110.785 Y147.154 E.01002
G1 X110.994 Y147.018 E.0093
G1 X111.126 Y146.844 E.00813
G1 X111.207 Y146.521 E.01239
G1 X111.207 Y78.207 E2.54445
G1 X127.793 Y78.207 E.61776
G1 X127.793 Y149.793 E2.6663
G1 X100.207 Y149.793 E1.02747
G1 X100.207 Y131.207 E.69225
G1 X102.563 Y131.207 E.08775
G1 X102.563 Y132.474 E.0472
G1 X102.014 Y140.013 E.28152
G1 X101.543 Y146.472 E.24121
G1 X101.601 Y146.8 E.01243
G1 X101.782 Y147.043 E.01129
G1 X102.001 Y147.169 E.00941
G1 X102.111 Y147.187 E.00414
G1 X102.227 Y146.75 F9000
;TYPE:Outer wall
G1 F900
G1 X110.521 Y146.75 E.30894
G1 X110.679 Y146.687 E.00632
G1 X110.75 Y146.521 E.00671
G1 X110.75 Y77.75 E2.56147
G1 X128.25 Y77.75 E.65181
G1 X128.25 Y150.25 E2.70035
G1 X99.75 Y150.25 E1.06152
G1 X99.75 Y130.75 E.7263
G1 X103.02 Y130.75 E.12179
G1 X103.02 Y132.491 E.06484
G1 X102.47 Y140.046 E.28214
G1 X101.999 Y146.505 E.24121
G1 X102.079 Y146.695 E.00769
G1 X102.189 Y146.736 E.0044
G1 E-3.5 F3600
;WIPE_START
G1 F900
G1 X104.189 Y146.739 E-1.5
;WIPE_END
G1 Z.6 F9000
G1 X101.015 Y131.81 Z.6
G1 Z.2
G1 E5 F2400
;TYPE:Bottom surface
;WIDTH:0.509763
G1 F1200
G1 X101.747 Y132.542 E.03938
G1 X101.702 Y133.158 E.02347
G1 X101.016 Y132.472 E.0369
G1 X101.016 Y133.132 E.02512
G1 X101.657 Y133.773 E.03449
G1 X101.612 Y134.388 E.02347
G1 X101.016 Y133.792 E.03208
G1 X101.016 Y134.452 E.02512
G1 X101.567 Y135.004 E.02966
G1 X101.523 Y135.619 E.02347
G1 X101.016 Y135.113 E.02725
G1 X101.016 Y135.773 E.02512
G1 X101.478 Y136.235 E.02484
G1 X101.433 Y136.85 E.02347
G1 X101.016 Y136.433 E.02243
G1 X101.016 Y137.093 E.02512
G1 X101.388 Y137.465 E.02002
G1 X101.343 Y138.081 E.02347
G1 X101.016 Y137.754 E.0176
G1 X101.016 Y138.414 E.02512
G1 X101.298 Y138.696 E.01519
G1 X101.254 Y139.311 E.02347
G1 X100.81 Y138.868 E.02385
G1 E-3.5 F3600
;WIPE_START
G1 F1200
G1 X101.254 Y139.311 E-.47011
G1 X101.298 Y138.696 E-.46276
G1 X101.016 Y138.414 E-.2995
G1 X101.016 Y138.057 E-.26762
;WIPE_END
G1 Z.6 F9000
G1 X126.26 Y78.81 Z.6
G1 Z.2
G1 E5 F2400
;WIDTH:0.502536
G1 F1200
G1 X126.984 Y79.534 E.03833
G1 X126.984 Y80.184 E.02434
G1 X125.816 Y79.016 E.06186
G1 X125.166 Y79.016 E.02434
G1 X126.984 Y80.834 E.09629
G1 X126.984 Y81.484 E.02434
G1 X124.516 Y79.016 E.13072
G1 X123.866 Y79.016 E.02434
G1 X126.984 Y82.134 E.16515
G1 X126.984 Y82.784 E.02434
G1 X123.216 Y79.016 E.19958
G1 X122.566 Y79.016 E.02434
G1 X126.984 Y83.434 E.234
G1 X126.984 Y84.084 E.02434
G1 X121.916 Y79.016 E.26843
G1 X121.266 Y79.016 E.02434
G1 X126.984 Y84.734 E.30286
G1 X126.984 Y85.384 E.02434
G1 X120.616 Y79.016 E.33729
G1 X119.966 Y79.016 E.02434
G1 X126.984 Y86.034 E.37171
M73 P0 R131
G1 X126.984 Y86.684 E.02434
G1 X119.316 Y79.016 E.40614
G1 X118.666 Y79.016 E.02434
G1 X126.984 Y87.334 E.44057
G1 X126.984 Y87.984 E.02434
G1 X118.016 Y79.016 E.475
G1 X117.366 Y79.016 E.02434
G1 X126.984 Y88.634 E.50943
G1 X126.984 Y89.284 E.02434
G1 X116.716 Y79.016 E.54385
G1 X116.066 Y79.016 E.02434
G1 X126.984 Y89.934 E.57828
G1 X126.984 Y90.584 E.02434
G1 X115.416 Y79.016 E.61271
G1 X114.766 Y79.016 E.02434
G1 X126.984 Y91.234 E.64714
G1 X126.984 Y91.884 E.02434
G1 X114.116 Y79.016 E.68157
G1 X113.466 Y79.016 E.02434
G1 X126.984 Y92.534 E.71599
G1 X126.984 Y93.184 E.02434
G1 X112.816 Y79.016 E.75042
G1 X112.166 Y79.016 E.02434
G1 X126.984 Y93.834 E.78485
M73 P1 R131
G1 X126.984 Y94.484 E.02434
G1 X112.016 Y79.516 E.79279
G1 X112.016 Y80.166 E.02434
G1 X126.984 Y95.134 E.79279
G1 X126.984 Y95.784 E.02434
G1 X112.016 Y80.816 E.79279
G1 X112.016 Y81.466 E.02434
G1 X126.984 Y96.434 E.79279
G1 X126.984 Y97.084 E.02434
G1 X112.016 Y82.116 E.79279
G1 X112.016 Y82.766 E.02434
G1 X126.984 Y97.734 E.79279
G1 X126.984 Y98.384 E.02434
G1 X112.016 Y83.416 E.79279
G1 X112.016 Y84.066 E.02434
G1 X126.984 Y99.034 E.79279
G1 X126.984 Y99.684 E.02434
G1 X112.016 Y84.716 E.79279
G1 X112.016 Y85.366 E.02434
G1 X126.984 Y100.334 E.79279
G1 X126.984 Y100.984 E.02434
G1 X112.016 Y86.016 E.79279
G1 X112.016 Y86.666 E.02434
G1 X126.984 Y101.634 E.79279
G1 X126.984 Y102.284 E.02434
G1 X112.016 Y87.316 E.79279
G1 X112.016 Y87.966 E.02434
G1 X126.984 Y102.934 E.79279
G1 X126.984 Y103.584 E.02434
G1 X112.016 Y88.616 E.79279
G1 X112.016 Y89.266 E.02434
G1 X126.984 Y104.234 E.79279
G1 X126.984 Y104.884 E.02434
G1 X112.016 Y89.916 E.79279
G1 X112.016 Y90.566 E.02434
G1 X126.984 Y105.534 E.79279
G1 X126.984 Y106.184 E.02434
G1 X112.016 Y91.216 E.79279
G1 X112.016 Y91.866 E.02434
G1 X126.984 Y106.834 E.79279
G1 X126.984 Y107.484 E.02434
G1 X112.016 Y92.516 E.79279
G1 X112.016 Y93.166 E.02434
G1 X126.984 Y108.134 E.79279
G1 X126.984 Y108.784 E.02434
G1 X112.016 Y93.816 E.79279
G1 X112.016 Y94.466 E.02434
G1 X126.984 Y109.434 E.79279
G1 X126.984 Y110.084 E.02434
G1 X112.016 Y95.116 E.79279
G1 X112.016 Y95.766 E.02434
G1 X126.984 Y110.734 E.79279
G1 X126.984 Y111.384 E.02434
G1 X112.016 Y96.416 E.79279
G1 X112.016 Y97.066 E.02434
G1 X126.984 Y112.034 E.79279
G1 X126.984 Y112.684 E.02434
G1 X112.016 Y97.716 E.79279
G1 X112.016 Y98.366 E.02434
G1 X126.984 Y113.334 E.79279
G1 X126.984 Y113.984 E.02434
G1 X112.016 Y99.016 E.79279
G1 X112.016 Y99.666 E.02434
G1 X126.984 Y114.634 E.79279
G1 X126.984 Y115.284 E.02434
G1 X112.016 Y100.316 E.79279
G1 X112.016 Y100.966 E.02434
G1 X126.984 Y115.934 E.79279
G1 X126.984 Y116.584 E.02434
G1 X112.016 Y101.616 E.79279
G1 X112.016 Y102.266 E.02434
G1 X126.984 Y117.234 E.79279
G1 X126.984 Y117.884 E.02434
G1 X112.016 Y102.916 E.79279
G1 X112.016 Y103.566 E.02434
G1 X126.984 Y118.534 E.79279
G1 X126.984 Y119.184 E.02434
G1 X112.016 Y104.216 E.79279
G1 X112.016 Y104.866 E.02434
G1 X126.984 Y119.834 E.79279
G1 X126.984 Y120.484 E.02434
G1 X112.016 Y105.516 E.79279
G1 X112.016 Y106.166 E.02434
G1 X126.984 Y121.134 E.79279
G1 X126.984 Y121.784 E.02434
G1 X112.016 Y106.816 E.79279
G1 X112.016 Y107.466 E.02434
G1 X126.984 Y122.434 E.79279
G1 X126.984 Y123.084 E.02434
G1 X112.016 Y108.116 E.79279
M73 P1 R130
G1 X112.016 Y108.766 E.02434
G1 X126.984 Y123.734 E.79279
G1 X126.984 Y124.384 E.02434
G1 X112.016 Y109.416 E.79279
G1 X112.016 Y110.066 E.02434
G1 X126.984 Y125.034 E.79279
G1 X126.984 Y125.684 E.02434
G1 X112.016 Y110.716 E.79279
G1 X112.016 Y111.366 E.02434
G1 X126.984 Y126.334 E.79279
G1 X126.984 Y126.984 E.02434
G1 X112.016 Y112.016 E.79279
G1 X112.016 Y112.666 E.02434
G1 X126.984 Y127.634 E.79279
G1 X126.984 Y128.284 E.02434
G1 X112.016 Y113.316 E.79279
G1 X112.016 Y113.966 E.02434
G1 X126.984 Y128.934 E.79279
G1 X126.984 Y129.584 E.02434
G1 X112.016 Y114.616 E.79279
G1 X112.016 Y115.266 E.02434
G1 X126.984 Y130.234 E.79279
G1 X126.984 Y130.884 E.02434
G1 X112.016 Y115.916 E.79279
G1 X112.016 Y116.566 E.02434
G1 X126.984 Y131.534 E.79279
G1 X126.984 Y132.184 E.02434
G1 X112.016 Y117.216 E.79279
G1 X112.016 Y117.866 E.02434
G1 X126.984 Y132.834 E.79279
G1 X126.984 Y133.484 E.02434
G1 X112.016 Y118.516 E.79279
G1 X112.016 Y119.166 E.02434
G1 X126.984 Y134.134 E.79279
G1 X126.984 Y134.784 E.02434
G1 X112.016 Y119.816 E.79279
G1 X112.016 Y120.466 E.02434
G1 X126.984 Y135.434 E.79279
G1 X126.984 Y136.084 E.02434
G1 X112.016 Y121.116 E.79279
G1 X112.016 Y121.766 E.02434
G1 X126.984 Y136.734 E.79279
G1 X126.984 Y137.384 E.02434
G1 X112.016 Y122.416 E.79279
G1 X112.016 Y123.066 E.02434
G1 X126.984 Y138.034 E.79279
G1 X126.984 Y138.684 E.02434
G1 X112.016 Y123.716 E.79279
G1 X112.016 Y124.366 E.02434
G1 X126.984 Y139.334 E.79279
G1 X126.984 Y139.984 E.02434
G1 X112.016 Y125.016 E.79279
G1 X112.016 Y125.666 E.02434
G1 X126.984 Y140.634 E.79279
M73 P2 R130
G1 X126.984 Y141.284 E.02434
G1 X112.016 Y126.316 E.79279
G1 X112.016 Y126.966 E.02434
G1 X126.984 Y141.934 E.79279
G1 X126.984 Y142.584 E.02434
G1 X112.016 Y127.616 E.79279
G1 X112.016 Y128.266 E.02434
G1 X126.984 Y143.234 E.79279
G1 X126.984 Y143.884 E.02434
G1 X112.016 Y128.916 E.79279
G1 X112.016 Y129.566 E.02434
G1 X126.984 Y144.534 E.79279
G1 X126.984 Y145.184 E.02434
G1 X112.016 Y130.216 E.79279
G1 X112.016 Y130.866 E.02434
G1 X126.984 Y145.834 E.79279
G1 X126.984 Y146.484 E.02434
G1 X112.016 Y131.516 E.79279
G1 X112.016 Y132.166 E.02434
G1 X126.984 Y147.134 E.79279
G1 X126.984 Y147.784 E.02434
G1 X112.016 Y132.816 E.79279
G1 X112.016 Y133.466 E.02434
G1 X126.984 Y148.434 E.79279
G1 X126.984 Y148.984 E.02061
G1 X126.884 Y148.984 E.00373
G1 X112.016 Y134.116 E.78751
G1 X112.016 Y134.766 E.02434
G1 X126.234 Y148.984 E.75309
G1 X125.584 Y148.984 E.02434
G1 X112.016 Y135.416 E.71866
G1 X112.016 Y136.066 E.02434
G1 X124.934 Y148.984 E.68423
G1 X124.284 Y148.984 E.02434
G1 X112.016 Y136.716 E.6498
G1 X112.016 Y137.366 E.02434
G1 X123.634 Y148.984 E.61537
G1 X122.984 Y148.984 E.02434
G1 X112.016 Y138.016 E.58095
G1 X112.016 Y138.666 E.02434
G1 X122.334 Y148.984 E.54652
G1 X121.684 Y148.984 E.02434
G1 X112.016 Y139.316 E.51209
G1 X112.016 Y139.966 E.02434
G1 X121.034 Y148.984 E.47766
G1 X120.384 Y148.984 E.02434
G1 X112.016 Y140.616 E.44323
G1 X112.016 Y141.266 E.02434
G1 X119.734 Y148.984 E.40881
G1 X119.084 Y148.984 E.02434
G1 X112.016 Y141.916 E.37438
G1 X112.016 Y142.566 E.02434
G1 X118.434 Y148.984 E.33995
G1 X117.784 Y148.984 E.02434
G1 X112.016 Y143.216 E.30552
G1 X112.016 Y143.866 E.02434
G1 X117.134 Y148.984 E.2711
G1 X116.484 Y148.984 E.02434
G1 X112.016 Y144.516 E.23667
G1 X112.016 Y145.166 E.02434
G1 X115.834 Y148.984 E.20224
G1 X115.184 Y148.984 E.02434
G1 X112.016 Y145.816 E.16781
G1 X112.016 Y146.466 E.02434
G1 X114.534 Y148.984 E.13338
G1 X113.884 Y148.984 E.02434
G1 X111.918 Y147.018 E.10414
G1 X111.841 Y147.227 E.00835
G1 X111.684 Y147.433 E.00971
G1 X113.234 Y148.984 E.08213
G1 X112.584 Y148.984 E.02434
G1 X111.343 Y147.743 E.06575
G1 X111.101 Y147.901 E.01083
G1 X110.908 Y147.957 E.00755
G1 X111.934 Y148.984 E.05439
G1 X111.284 Y148.984 E.02434
G1 X110.317 Y148.016 E.05126
G1 X109.667 Y148.016 E.02434
G1 X110.634 Y148.984 E.05126
G1 X109.984 Y148.984 E.02434
G1 X109.017 Y148.016 E.05126
G1 X108.367 Y148.016 E.02434
G1 X109.334 Y148.984 E.05126
G1 X108.684 Y148.984 E.02434
G1 X107.717 Y148.016 E.05126
G1 X107.067 Y148.016 E.02434
G1 X108.034 Y148.984 E.05126
G1 X107.384 Y148.984 E.02434
G1 X106.417 Y148.016 E.05126
G1 X105.767 Y148.016 E.02434
G1 X106.734 Y148.984 E.05126
G1 X106.084 Y148.984 E.02434
G1 X105.117 Y148.016 E.05126
G1 X104.467 Y148.016 E.02434
G1 X105.434 Y148.984 E.05126
G1 X104.784 Y148.984 E.02434
G1 X103.817 Y148.016 E.05126
G1 X103.167 Y148.016 E.02434
G1 X104.134 Y148.984 E.05126
G1 X103.484 Y148.984 E.02434
G1 X102.517 Y148.016 E.05126
G1 X102.217 Y148.016 E.01124
G1 X101.795 Y147.945 E.016
G1 X102.834 Y148.984 E.05504
G1 X102.184 Y148.984 E.02434
G1 X101.012 Y147.811 E.06213
G1 X101.014 Y148.463 E.02443
G1 X101.74 Y149.19 E.03847
; stop printing object rtl_p53_holder.stl id:0 copy 0
M106 S255
;LAYER_CHANGE
;Z:0.4
;HEIGHT:0.2
G1 E-3.5 F3600
;WIPE_START
G1 F1200
G1 X101.014 Y148.463 E-.77038
G1 X101.012 Y147.811 E-.48922
G1 X101.238 Y148.038 E-.2404
;WIPE_END
EXCLUDE_OBJECT_END NAME=rtl_p53_holder.stl_id_0_copy_0
;_SET_FAN_SPEED_CHANGING_LAYER
M140 S60 ; set bed temperature
; printing object rtl_p53_holder.stl id:0 copy 0
SET_VELOCITY_LIMIT ACCEL=700 ACCEL_TO_DECEL=350
EXCLUDE_OBJECT_START NAME=rtl_p53_holder.stl_id_0_copy_0
G1 Z.6 F9000
M73 P2 R129
G1 X102.095 Y147.467 Z.6
G1 Z.4
G1 E5 F2400
SET_VELOCITY_LIMIT ACCEL=500 ACCEL_TO_DECEL=250
;TYPE:Inner wall
;WIDTH:0.449999
G1 X102.227 Y147.489 E.00445
G1 X110.521 Y147.489 E.27514
G1 X110.894 Y147.415 E.01259
G1 X111.189 Y147.222 E.01169
G1 X111.375 Y146.977 E.01022
G1 X111.466 Y146.734 E.0086
G1 X111.489 Y146.521 E.00709
G1 X111.489 Y78.489 E2.25675
G1 X127.511 Y78.489 E.53147
G1 X127.511 Y149.511 E2.35592
G1 X100.489 Y149.511 E.89636
G1 X100.489 Y147.77 E.05775
;WIDTH:0.477194
G1 X100.503 Y147.096 E.02384
;WIDTH:0.518331
G1 X100.523 Y147.012 E.00338
;WIDTH:0.559468
G1 X100.544 Y146.927 E.00368
;WIDTH:0.600605
G1 X100.564 Y146.842 E.00397
;WIDTH:0.641742
G1 X100.585 Y146.757 E.00426
;WIDTH:0.644983
G1 X100.587 Y146.101 E.03216
G1 X100.562 Y146.001 E.00505
;WIDTH:0.596237
G1 X100.538 Y145.902 E.00464
;WIDTH:0.547491
G1 X100.514 Y145.802 E.00423
;WIDTH:0.498745
G1 X100.489 Y145.702 E.00382
;WIDTH:0.449999
G1 X100.489 Y131.489 E.47145
G1 X102.281 Y131.489 E.05943
G1 X102.281 Y132.464 E.03234
G1 X101.314 Y145.732 E.44128
;WIDTH:0.498745
G1 X101.283 Y145.83 E.00382
;WIDTH:0.547491
G1 X101.251 Y145.927 E.00423
;WIDTH:0.596237
G1 X101.219 Y146.025 E.00464
;WIDTH:0.644983
G1 X101.188 Y146.123 E.00505
G1 X101.179 Y146.705 E.02855
;WIDTH:0.641742
G1 X101.284 Y146.843 E.00846
;WIDTH:0.593807
G1 X101.389 Y146.981 E.00779
;WIDTH:0.545871
G1 X101.494 Y147.12 E.00711
;WIDTH:0.497935
G1 X101.599 Y147.258 E.00643
;WIDTH:0.449999
G1 X101.908 Y147.435 E.01183
G1 X102.055 Y147.46 E.00494
